svgs/thin/arrows-up-down-left-right.svg

<svg xmlns="http://www.w3.org/2000/svg" viewBox="0 0 512 512"><!--! Font Awesome Pro 6.3.0 by @fontawesome - https://fontawesome.com License - https://fontawesome.com/license (Commercial License) Copyright 2023 Fonticons, Inc. --><path d="M512 255.1c0 2.047-.7813 4.128-2.344 5.691l-80 88C428.1 351.2 426 352 424 352C419.7 352 416 348.6 416 344c0-2.047 .7813-4.094 2.344-5.656L484.7 264H264v220.7l74.34-66.34C339.9 416.8 341.1 416 344 416c2.906 0 8 2.281 8 8c0 2.062-.7813 4.094-2.344 5.656l-88 80C260.1 511.2 258 512 256 512s-4.094-.7813-5.656-2.344l-88-80C160.8 428.1 160 426 160 424C160 419.4 163.7 416 168 416c2.047 0 4.094 .7813 5.656 2.344L248 484.7V264H27.31l66.34 74.34C95.22 339.9 96 341.1 96 344C96 346.9 93.72 352 88 352c-2.062 0-4.094-.7813-5.656-2.344l-80-88C.7813 260.1 0 258 0 255.1s.7813-4.059 2.344-5.622l80-88C83.91 160.8 85.95 160 88 160C92.26 160 96 163.4 96 168c0 2.047-.7813 4.094-2.344 5.656L27.31 248H248V27.31L173.7 93.66C172.1 95.22 170 96 168 96C165.1 96 160 93.72 160 88c0-2.062 .7813-4.094 2.344-5.656l88-80C251.9 .7813 253.1 0 256 0s4.094 .7813 5.656 2.344l88 80C351.2 83.91 352 85.95 352 88C352 92.57 348.3 96 344 96c-2.047 0-4.094-.7813-5.656-2.344L264 27.31V248h220.7l-66.34-74.34C416.8 172.1 416 170 416 168C416 165.1 418.3 160 424 160c2.062 0 4.094 .7813 5.656 2.344l80 88C511.2 251.9 512 253.9 512 255.1z"/></svg>

<svg xmlns="http://www.w3.org/2000/svg" viewBox="0 0 512 512"><!-- Font Awesome Pro 6.0.0-alpha2 by @fontawesome - https://fontawesome.com License - https://fontawesome.com/license (Commercial License) --><path d="M512 256C512 258.047 511.219 260.094 509.656 261.656L429.656 349.656C428.094 351.219 426.047 352 424 352C419.737 352 416 348.567 416 344C416 341.953 416.781 339.906 418.344 338.344L484.688 264H264V484.688L338.344 418.344C339.906 416.781 341.953 416 344 416C346.906 416 352 418.281 352 424C352 426.062 351.219 428.094 349.656 429.656L261.656 509.656C260.094 511.219 258.047 512 256 512S251.906 511.219 250.344 509.656L162.344 429.656C160.781 428.094 160 426.047 160 424C160 419.43 163.737 416 168 416C170.047 416 172.094 416.781 173.656 418.344L248 484.688V264H27.312L93.656 338.344C95.219 339.906 96 341.953 96 344C96 346.906 93.719 352 88 352C85.938 352 83.906 351.219 82.344 349.656L2.344 261.656C0.781 260.094 0 258.047 0 256S0.781 251.906 2.344 250.344L82.344 162.344C83.906 160.781 85.953 160 88 160C92.263 160 96 163.433 96 168C96 170.047 95.219 172.094 93.656 173.656L27.312 248H248V27.312L173.656 93.656C172.094 95.219 170.047 96 168 96C165.094 96 160 93.719 160 88C160 85.938 160.781 83.906 162.344 82.344L250.344 2.344C251.906 0.781 253.953 0 256 0S260.094 0.781 261.656 2.344L349.656 82.344C351.219 83.906 352 85.953 352 88C352 92.57 348.263 96 344 96C341.953 96 339.906 95.219 338.344 93.656L264 27.312V248H484.688L418.344 173.656C416.781 172.094 416 170.047 416 168C416 165.094 418.281 160 424 160C426.062 160 428.094 160.781 429.656 162.344L509.656 250.344C511.219 251.906 512 253.953 512 256Z "></path></svg>
